packages/components/src/components/icon/wallet/ic-wallet-markets.svg

<svg width="16" height="14" viewBox="0 0 16 14" fill="none" xmlns="http://www.w3.org/2000/svg">
<path d="M12.5 0L12.5233 0.000487447C12.5367 0.00110013 12.5501 0.00225104 12.5634 0.00394559C12.5793 0.00606421 12.5948 0.00879536 12.61 0.0122273C12.6231 0.0150617 12.6361 0.0185594 12.6491 0.0226063C12.6611 0.0264912 12.6729 0.0306738 12.6845 0.0352838C12.6983 0.0406403 12.7126 0.0470631 12.7266 0.0542042C12.7423 0.062316 12.7571 0.0708464 12.7715 0.0801096C12.7784 0.0846088 12.7856 0.0895277 12.7927 0.0946604C12.8628 0.145997 12.9178 0.211978 12.954 0.290471L12.9159 0.222168C12.9334 0.24835 12.9482 0.275956 12.9603 0.304563L15.954 6.79047C15.9559 6.79468 15.9578 6.7989 15.9596 6.80314C15.9674 6.82091 15.9741 6.83954 15.9797 6.85865C15.9836 6.87214 15.9869 6.88555 15.9897 6.89904C15.9935 6.91705 15.9963 6.93562 15.998 6.95449C15.9989 6.96566 15.9996 6.97638 15.9998 6.9871C15.9999 6.99115 16 6.99557 16 7L15.9969 7.05532C15.9958 7.06504 15.9945 7.07473 15.9928 7.08438L16 7C16 7.09424 15.9739 7.18239 15.9286 7.25763L15.9258 7.26205L11.9258 13.762C11.9247 13.7638 11.9236 13.7656 11.9225 13.7674C11.9152 13.7791 11.9074 13.7903 11.8992 13.8013C11.8899 13.8134 11.8802 13.8251 11.8701 13.8362C11.8617 13.8457 11.852 13.8555 11.842 13.865C11.8306 13.8754 11.819 13.8853 11.807 13.8947C11.7969 13.9026 11.7865 13.9101 11.7757 13.9172C11.7626 13.9258 11.749 13.9338 11.7352 13.9412C11.7314 13.9432 11.7275 13.9453 11.7236 13.9472L11.6983 13.959C11.6834 13.9654 11.6682 13.9711 11.6527 13.9761L11.7236 13.9472C11.6863 13.9659 11.6477 13.9794 11.6087 13.9882C11.5735 13.9959 11.5371 14 11.5 14L11.5727 13.9948C11.5566 13.9972 11.5405 13.9988 11.5244 13.9995L11.5 14H3.5C3.48641 14 3.4729 13.9994 3.45951 13.9984C3.45172 13.9978 3.44372 13.997 3.43574 13.9959C3.41634 13.9933 3.39742 13.9898 3.37885 13.9851C3.36954 13.9829 3.35985 13.9802 3.35022 13.9772C3.33439 13.9721 3.31923 13.9665 3.30439 13.9602C3.29309 13.9555 3.28118 13.9499 3.26943 13.9438C3.22023 13.918 3.17578 13.8846 3.13765 13.8446L3.2 13.9C3.16727 13.8755 3.13841 13.8477 3.11353 13.8174C3.08706 13.7851 3.06418 13.7489 3.04602 13.7095L3.08194 13.7745C3.07585 13.7652 3.07009 13.7558 3.06466 13.7462L3.04602 13.7095L0.0460203 7.20953C0.0437592 7.20463 0.0415821 7.19971 0.039489 7.19476C0.0335678 7.18113 0.0282466 7.1668 0.02358 7.15218C0.0184814 7.13575 0.0142342 7.11966 0.0108062 7.10344C0.0088363 7.09459 0.00707382 7.08487 0.00559652 7.07506C0.00241872 7.05356 0.00060907 7.03251 0.000128403 7.01147C4.22175e-05 7.00758 0 7.00379 0 7L0.000107798 6.98956C0.000565031 6.96774 0.00244899 6.94597 0.00574715 6.9244L0 7C0 6.96462 0.00367368 6.93011 0.0106603 6.89681C0.0142832 6.88001 0.0188334 6.86288 0.0242992 6.84599C0.0282632 6.83334 0.0327982 6.82103 0.0377922 6.80896C0.0513651 6.77644 0.0683828 6.74504 0.0889039 6.71539L0.0570343 6.76787C0.0632933 6.75595 0.0700193 6.74432 0.077188 6.73299L0.0889039 6.71539L4.5889 0.215395C4.59446 0.207374 4.60022 0.199545 4.60619 0.191914C4.61751 0.177172 4.63056 0.162293 4.64455 0.148165C4.65284 0.139953 4.66162 0.13169 4.67067 0.12377C4.68383 0.112079 4.69839 0.100669 4.71368 0.0900137C4.72528 0.0820046 4.73687 0.0746145 4.74874 0.0677159C4.75737 0.0626778 4.76677 0.0575978 4.77639 0.0527864L4.79476 0.0440661C4.8075 0.0383287 4.82049 0.033122 4.8337 0.0284635L4.77639 0.0527864C4.81245 0.0347568 4.84965 0.0214933 4.88727 0.0127571C4.92353 0.00443713 4.96148 0 5 0L4.9173 0.00675189C4.94105 0.00276259 4.96488 0.000535533 4.98863 1.15633e-05L5 0H12.5ZM6.827 7.5H1.28L3.602 12.531L4.6 11.2C4.76569 10.9791 5.07909 10.9343 5.3 11.1C5.49637 11.2473 5.55356 11.5113 5.44748 11.7233L5.4 11.8L4.5 13H10.69L7.989 7.598L6.40534 9.79275C6.24366 10.0166 5.93112 10.067 5.70725 9.90534C5.50827 9.76163 5.44633 9.49871 5.54857 9.28483L5.59466 9.20725L6.827 7.5ZM12.404 1.486L8.783 6.5H10.5C10.7761 6.5 11 6.72386 11 7C11 7.24546 10.8231 7.44961 10.5899 7.49194L10.5 7.5H9.059L11.545 12.471L14.604 7.5H12.5C12.2239 7.5 12 7.27614 12 7C12 6.75454 12.1769 6.55039 12.4101 6.50806L12.5 6.5H14.718L12.404 1.486ZM11.521 1H5.809L6.44721 2.27639C6.57071 2.52338 6.4706 2.82372 6.22361 2.94721C6.00406 3.05699 5.74236 2.99008 5.60019 2.80039L5.55279 2.72361L4.929 1.478L1.453 6.5H7.44L6.55279 4.72361C6.42929 4.47662 6.5294 4.17628 6.77639 4.05279C6.99594 3.94301 7.25764 4.00992 7.39981 4.19961L7.44721 4.27639L8.146 5.674L11.521 1Z" fill="#333333"/>
</svg>

<svg width="16" height="14" fill="none" xmlns="http://www.w3.org/2000/svg"><path d="M12.5 0h.023a.497.497 0 01.431.29l-.038-.068a.496.496 0 01.044.083l2.994 6.485a.617.617 0 01.036.109A.476.476 0 0116 7l-.003.055a.476.476 0 01-.004.03L16 7a.498.498 0 01-.071.258l-.003.004-4 6.5-.004.005a.496.496 0 01-.187.174l-.011.006-.026.012a.52.52 0 01-.045.017l.07-.029A.503.503 0 0111.5 14l.073-.005a.464.464 0 01-.049.005H3.5a.544.544 0 01-.15-.023.542.542 0 01-.08-.033.507.507 0 01-.132-.1l.062.056a.497.497 0 01-.154-.19l.036.064a.51.51 0 01-.017-.028l-.019-.037-3-6.5A.5.5 0 010 7v-.01a.5.5 0 01.006-.066L0 7a.502.502 0 01.089-.285l-.032.053a.5.5 0 01.02-.035l.012-.018 4.5-6.5a.505.505 0 01.187-.162l.019-.009a.499.499 0 01.039-.016l-.058.025A.501.501 0 015 0l-.083.007A.497.497 0 014.99 0H12.5zM6.827 7.5H1.28l2.322 5.031L4.6 11.2a.5.5 0 01.847.523L5.4 11.8 4.5 13h6.19L7.989 7.598 6.405 9.793a.5.5 0 01-.856-.508l.046-.078L6.827 7.5zm5.577-6.014L8.783 6.5H10.5a.5.5 0 01.09.992l-.09.008H9.059l2.486 4.971L14.604 7.5H12.5a.5.5 0 01-.09-.992l.09-.008h2.218l-2.314-5.014zM11.521 1H5.809l.638 1.276A.5.5 0 015.6 2.8l-.047-.076-.624-1.246L1.453 6.5H7.44l-.887-1.776A.5.5 0 017.4 4.2l.047.076.699 1.398L11.521 1z" fill="#333"/></svg>
